src/assets/img/unsorted/btn_bubble.svg

<svg xmlns:xlink="http://www.w3.org/1999/xlink" height="26.3" width="37.6" xmlns="http://www.w3.org/2000/svg"><g transform="translate(18.8 13.15)"><use height="26.3" transform="translate(-18.8 -13.15)" width="37.6" xlink:href="#a"/><use height="15.15" transform="translate(-9.45 -8.2)" width="19.85" xlink:href="#b"/><use height="13.15" transform="translate(-8.45 -7.2)" width="17.85" xlink:href="#c"/></g><defs><path d="M-18.7-6.15h37.35q0 5.1-3.6 8.7-3.6 3.6-8.75 3.6H-6.4q-5.1 0-8.7-3.6-3.6-3.6-3.6-8.7" fill="#527ca3" fill-rule="evenodd" transform="translate(18.7 6.15)" id="e"/><path d="M18.8-7.5v4.7q0 4.3-3 7.3-3.05 3-7.35 3H-8.5q-4.25 0-7.3-3-3-3-3-7.3v-4.7h37.6" fill="#a10069" fill-rule="evenodd" transform="translate(18.8 7.5)" id="f"/><path d="M18.8-1.3v2.65q0 4.3-3 7.3-3.05 3-7.35 3H-8.5q-4.25 0-7.3-3-3-3-3-7.3V-1.3q0-4.3 3-7.35 3-3 7.3-3H8.45q4.3 0 7.35 3 3 3.05 3 7.35" fill="#f0009c" fill-rule="evenodd" transform="translate(18.8 11.65)" id="g"/><path d="M-8.15-4.7Q-5.25-7.6 0-7.6q4 0 6.85 1.85 3.1 2 3.1 4.9 0 2.95-3.1 4.95Q4 5.95 0 5.95q-2.05 0-3.95-.6L-7.7 7.4l-1.2-.15-.3-.7.15-.45 1.35-2.7Q-9.9 1.5-9.9-.85q0-2.1 1.75-3.85" fill="#f0009c" fill-rule="evenodd" transform="translate(9.9 7.6)" id="h"/><path d="M0-6.6q3.7 0 6.35 1.7 2.6 1.7 2.6 4.05 0 2.4-2.6 4.1Q3.7 4.95 0 4.95l-4.1-.65-4.1 2.25 1.75-3.4q-2.45-1.7-2.45-4 0-2.35 2.6-4.05Q-3.65-6.6 0-6.6" fill="url(#d)" fill-rule="evenodd" transform="translate(8.9 6.6)" id="i"/><use height="12.3" width="37.35" xlink:href="#e" id="j"/><use height="15" width="37.6" xlink:href="#f" id="k"/><use height="23.3" width="37.6" xlink:href="#g" id="l"/><use height="15.15" width="19.85" xlink:href="#h" id="b"/><use height="13.15" width="17.85" xlink:href="#i" id="c"/><linearGradient gradientTransform="matrix(0 .0079 -.0086 0 1.3 2.25)" gradientUnits="userSpaceOnUse" id="n" spreadMethod="pad" x1="-819.2" x2="819.2"><stop offset="0" stop-color="#c10276"/><stop offset="1" stop-color="#ff009c"/></linearGradient><linearGradient gradientTransform="matrix(0 .007 -.0072 0 .45 -6)" gradientUnits="userSpaceOnUse" id="o" spreadMethod="pad" x1="-819.2" x2="819.2"><stop offset="0" stop-color="#fe9ae0"/><stop offset="1" stop-color="#ff00a6"/></linearGradient><linearGradient gradientTransform="matrix(-.0054 -.0094 .007 -.004 .05 0)" gradientUnits="userSpaceOnUse" id="d" spreadMethod="pad" x1="-819.2" x2="819.2"><stop offset="0" stop-color="#febde9"/><stop offset="1" stop-color="#fff"/></linearGradient><g id="a" transform="translate(18.9 13.15)"><use height="12.3" transform="translate(-18.9 .85)" width="37.35" xlink:href="#j"/><use height="15" transform="translate(-18.9 -3.5)" width="37.6" xlink:href="#k"/><use height="23.3" transform="translate(-18.9 -13.15)" width="37.6" xlink:href="#l"/><use height="21.25" transform="translate(-15.1 -11.9)" width="32.6" xlink:href="#m"/></g><g id="m" fill-rule="evenodd"><path d="M12.05-4.8q5.45 0 5.45 5.15 0 2.7-2.3 5.3-2.35 2.7-4.95 2.7l-15.85 1q-5.15 0-8.8-6-1.55-3.2.25-5.8 1.6-2.35 4.25-2.35h21.95" fill="url(#n)" transform="translate(15.1 11.9)"/><path d="M-14-6.7q0-2.15 1.5-3.65 1.55-1.55 3.7-1.55H9.65q2.15 0 3.7 1.55 1.5 1.5 1.5 3.65v1.35q0 2.15-1.5 3.65Q11.8-.15 9.65-.15H-8.8q-2.15 0-3.7-1.55Q-14-3.2-14-5.35V-6.7" fill="url(#o)" transform="translate(15.1 11.9)"/></g></defs></svg>

<?xml version="1.0" encoding="UTF-8" standalone="no"?>
<svg xmlns:xlink="http://www.w3.org/1999/xlink" height="26.3px" width="37.6px" xmlns="http://www.w3.org/2000/svg">
  <g transform="matrix(1.0, 0.0, 0.0, 1.0, 18.8, 13.15)">
    <use height="26.3" transform="matrix(1.0, 0.0, 0.0, 1.0, -18.8, -13.15)" width="37.6" xlink:href="#sprite0"/>
    <use height="15.15" transform="matrix(1.0, 0.0, 0.0, 1.0, -9.45, -8.2)" width="19.85" xlink:href="#sprite4"/>
    <use height="13.15" transform="matrix(1.0, 0.0, 0.0, 1.0, -8.45, -7.2)" width="17.85" xlink:href="#sprite5"/>
  </g>
  <defs>
    <g id="sprite0" transform="matrix(1.0, 0.0, 0.0, 1.0, 18.9, 13.15)">
      <use height="12.3" transform="matrix(1.0, 0.0, 0.0, 1.0, -18.9, 0.85)" width="37.35" xlink:href="#sprite1"/>
      <use height="15.0" transform="matrix(1.0, 0.0, 0.0, 1.0, -18.9, -3.5)" width="37.6" xlink:href="#sprite2"/>
      <use height="23.3" transform="matrix(1.0, 0.0, 0.0, 1.0, -18.9, -13.15)" width="37.6" xlink:href="#sprite3"/>
      <use height="21.25" transform="matrix(1.0, 0.0, 0.0, 1.0, -15.1, -11.9)" width="32.6" xlink:href="#shape3"/>
    </g>
    <g id="sprite1" transform="matrix(1.0, 0.0, 0.0, 1.0, 18.7, 6.15)">
      <use height="12.3" transform="matrix(1.0, 0.0, 0.0, 1.0, -18.7, -6.15)" width="37.35" xlink:href="#shape0"/>
    </g>
    <g id="shape0" transform="matrix(1.0, 0.0, 0.0, 1.0, 18.7, 6.15)">
      <path d="M-18.7 -6.15 L18.65 -6.15 Q18.65 -1.05 15.05 2.55 11.45 6.15 6.3 6.15 L-6.4 6.15 Q-11.5 6.15 -15.1 2.55 -18.7 -1.05 -18.7 -6.15" fill="#527ca3" fill-rule="evenodd" stroke="none"/>
    </g>
    <g id="sprite2" transform="matrix(1.0, 0.0, 0.0, 1.0, 18.8, 7.5)">
      <use height="15.0" transform="matrix(1.0, 0.0, 0.0, 1.0, -18.8, -7.5)" width="37.6" xlink:href="#shape1"/>
    </g>
    <g id="shape1" transform="matrix(1.0, 0.0, 0.0, 1.0, 18.8, 7.5)">
      <path d="M18.8 -7.5 L18.8 -2.8 Q18.8 1.5 15.8 4.5 12.75 7.5 8.45 7.5 L-8.5 7.5 Q-12.75 7.5 -15.8 4.5 -18.8 1.5 -18.8 -2.8 L-18.8 -7.5 18.8 -7.5" fill="#a10069" fill-rule="evenodd" stroke="none"/>
    </g>
    <g id="sprite3" transform="matrix(1.0, 0.0, 0.0, 1.0, 18.8, 11.65)">
      <use height="23.3" transform="matrix(1.0, 0.0, 0.0, 1.0, -18.8, -11.65)" width="37.6" xlink:href="#shape2"/>
    </g>
    <g id="shape2" transform="matrix(1.0, 0.0, 0.0, 1.0, 18.8, 11.65)">
      <path d="M18.8 -1.3 L18.8 1.35 Q18.8 5.65 15.8 8.65 12.75 11.65 8.45 11.65 L-8.5 11.65 Q-12.75 11.65 -15.8 8.65 -18.8 5.65 -18.8 1.35 L-18.8 -1.3 Q-18.8 -5.6 -15.8 -8.65 -12.8 -11.65 -8.5 -11.65 L8.45 -11.65 Q12.75 -11.65 15.8 -8.65 18.8 -5.6 18.8 -1.3" fill="#f0009c" fill-rule="evenodd" stroke="none"/>
    </g>
    <g id="shape3" transform="matrix(1.0, 0.0, 0.0, 1.0, 15.1, 11.9)">
      <path d="M12.05 -4.8 Q17.5 -4.8 17.5 0.35 17.5 3.05 15.2 5.65 12.85 8.35 10.25 8.35 L-5.6 9.35 Q-10.75 9.35 -14.4 3.35 -15.95 0.15 -14.15 -2.45 -12.55 -4.8 -9.9 -4.8 L12.05 -4.8" fill="url(#gradient0)" fill-rule="evenodd" stroke="none"/>
      <path d="M-14.0 -6.7 Q-14.0 -8.85 -12.5 -10.35 -10.95 -11.9 -8.8 -11.9 L9.65 -11.9 Q11.8 -11.9 13.35 -10.35 14.85 -8.85 14.85 -6.7 L14.85 -5.35 Q14.85 -3.2 13.35 -1.7 11.8 -0.15 9.65 -0.15 L-8.8 -0.15 Q-10.95 -0.15 -12.5 -1.7 -14.0 -3.2 -14.0 -5.35 L-14.0 -6.7" fill="url(#gradient1)" fill-rule="evenodd" stroke="none"/>
    </g>
    <linearGradient gradientTransform="matrix(0.0, 0.0079, -0.0086, 0.0, 1.3, 2.25)" gradientUnits="userSpaceOnUse" id="gradient0" spreadMethod="pad" x1="-819.2" x2="819.2">
      <stop offset="0.0" stop-color="#c10276"/>
      <stop offset="1.0" stop-color="#ff009c"/>
    </linearGradient>
    <linearGradient gradientTransform="matrix(0.0, 0.007, -0.0072, 0.0, 0.45, -6.0)" gradientUnits="userSpaceOnUse" id="gradient1" spreadMethod="pad" x1="-819.2" x2="819.2">
      <stop offset="0.0" stop-color="#fe9ae0"/>
      <stop offset="1.0" stop-color="#ff00a6"/>
    </linearGradient>
    <g id="sprite4" transform="matrix(1.0, 0.0, 0.0, 1.0, 9.9, 7.6)">
      <use height="15.15" transform="matrix(1.0, 0.0, 0.0, 1.0, -9.9, -7.6)" width="19.85" xlink:href="#shape4"/>
    </g>
    <g id="shape4" transform="matrix(1.0, 0.0, 0.0, 1.0, 9.9, 7.6)">
      <path d="M-8.15 -4.7 Q-5.25 -7.6 0.0 -7.6 4.0 -7.6 6.85 -5.75 9.95 -3.75 9.95 -0.85 9.95 2.1 6.85 4.1 4.0 5.95 0.0 5.95 -2.05 5.95 -3.95 5.35 L-7.7 7.4 -8.9 7.25 -9.2 6.55 -9.05 6.1 -7.7 3.4 Q-9.9 1.5 -9.9 -0.85 -9.9 -2.95 -8.15 -4.7" fill="#f0009c" fill-rule="evenodd" stroke="none"/>
    </g>
    <g id="sprite5" transform="matrix(1.0, 0.0, 0.0, 1.0, 8.9, 6.6)">
      <use height="13.15" transform="matrix(1.0, 0.0, 0.0, 1.0, -8.9, -6.6)" width="17.85" xlink:href="#shape5"/>
    </g>
    <g id="shape5" transform="matrix(1.0, 0.0, 0.0, 1.0, 8.9, 6.6)">
      <path d="M0.0 -6.6 Q3.7 -6.6 6.35 -4.9 8.95 -3.2 8.95 -0.85 8.95 1.55 6.35 3.25 3.7 4.95 0.0 4.95 L-4.1 4.3 -8.2 6.55 -6.45 3.15 Q-8.9 1.45 -8.9 -0.85 -8.9 -3.2 -6.3 -4.9 -3.65 -6.6 0.0 -6.6" fill="url(#gradient2)" fill-rule="evenodd" stroke="none"/>
    </g>
    <linearGradient gradientTransform="matrix(-0.0054, -0.0094, 0.007, -0.004, 0.05, 0.0)" gradientUnits="userSpaceOnUse" id="gradient2" spreadMethod="pad" x1="-819.2" x2="819.2">
      <stop offset="0.0" stop-color="#febde9"/>
      <stop offset="1.0" stop-color="#ffffff"/>
    </linearGradient>
  </defs>
</svg>
